gateways-e-adquirentes/deposit.svg

<svg enable-background="new 0 0 120 80" height="80" viewBox="0 0 120 80" width="120" xmlns="http://www.w3.org/2000/svg"><switch><foreignObject height="1" requiredExtensions="http://ns.adobe.com/AdobeIllustrator/10.0/" width="1"/><g><path d="m120 70c0 5.5-4.5 10-10 10h-100c-5.5 0-10-4.5-10-10v-60c0-5.5 4.5-10 10-10h100c5.5 0 10 4.5 10 10z" fill="#f5f5f5"/><path d="m110 0h-100c-5.5 0-10 4.5-10 10v60c0 5.5 4.5 10 10 10h100c5.5 0 10-4.5 10-10v-60c0-5.5-4.5-10-10-10zm0 2c4.412 0 8 3.588 8 8v60c0 4.412-3.588 8-8 8h-100c-4.412 0-8-3.588-8-8v-60c0-4.412 3.588-8 8-8z" fill="#fff"/><circle cx="86.804" cy="54.601" fill="#773cbc" r="12.442"/><path d="m88.65 53.473v-3.894h-5.965v-2.079l-4.025 4.026 4.025 4.026v-2.079z" fill="#fff"/><path d="m84.958 55.729v3.894h5.964v2.079l4.026-4.026-4.026-4.025v2.078z" fill="#fff"/><path d="m60 25.941c-7.752 0-14.058 6.307-14.058 14.058 0 7.752 6.307 14.059 14.058 14.059 7.752 0 14.059-6.307 14.059-14.059 0-7.751-6.307-14.058-14.059-14.058z" fill="#93c649"/><path d="m65.104 41.62c-.158-.405-.413-.767-.755-1.076-.333-.3-.765-.572-1.285-.809-.511-.232-1.141-.448-1.873-.64-.707-.189-1.306-.36-1.799-.513-.478-.146-.875-.309-1.181-.483-.29-.165-.5-.348-.624-.544-.123-.192-.183-.426-.183-.714 0-.285.065-.536.194-.746.134-.217.315-.401.538-.547.233-.151.501-.265.799-.341.696-.179 1.537-.149 2.117.069.334.125.619.274.848.445.229.17.411.346.542.523.139.188.238.339.294.451.11.222.219.361.341.436.12.074.268.11.454.11h.78c.171 0 .33-.063.46-.185.142-.131.206-.3.188-.472-.014-.309-.118-.66-.31-1.043-.188-.375-.457-.74-.804-1.088-.346-.346-.775-.654-1.273-.916-.452-.238-.966-.407-1.533-.506v-1.081c0-.198-.075-.379-.22-.524-.144-.143-.324-.218-.522-.218h-.78c-.199 0-.38.076-.523.219-.144.144-.22.325-.22.523v1.057c-.549.087-1.043.238-1.473.451-.48.24-.883.539-1.199.889-.316.351-.558.747-.72 1.177-.161.43-.243.872-.243 1.317 0 .455.064.882.192 1.271.129.396.348.763.648 1.091.295.322.68.61 1.146.856.46.243 1.021.451 1.669.62.695.177 1.318.345 1.867.502.537.154.995.326 1.361.508.349.175.62.371.804.582.168.195.249.422.249.698 0 .286-.075.537-.229.767-.159.238-.379.446-.654.618-.281.177-.614.314-.991.411-.826.207-1.829.186-2.488-.034-.359-.119-.665-.266-.914-.438-.246-.17-.442-.351-.585-.54-.146-.191-.254-.371-.325-.532-.097-.228-.214-.376-.359-.454-.129-.069-.277-.104-.44-.104h-.78c-.173 0-.331.066-.455.19-.126.124-.192.282-.192.465.014.39.132.792.352 1.196.214.396.516.766.897 1.1.377.33.826.622 1.335.871.458.223.972.386 1.527.484v1.081c0 .198.076.38.22.523.143.143.324.219.523.219h.78c.198 0 .379-.075.524-.22.143-.144.218-.324.218-.522v-1.033c.587-.073 1.133-.211 1.627-.411.556-.225 1.036-.514 1.426-.859.397-.349.707-.766.922-1.237s.325-.989.325-1.541c-.001-.495-.079-.948-.235-1.349z" fill="#fff"/><g fill="#93c649"><circle cx="37.992" cy="40" r="3.296"/><path d="m71.421 58.465h-40.21c-.525 0-.969-.444-.969-.969v-34.992c0-.525.444-.969.969-.969h57.578c.525 0 .969.444.969.969v16.506c1.363.257 2.659.694 3.876 1.276v-17.782c0-2.671-2.173-4.845-4.845-4.845h-57.578c-2.671 0-4.845 2.173-4.845 4.845v34.992c0 2.671 2.173 4.845 4.845 4.845h41.738c-.674-1.203-1.184-2.506-1.528-3.876z"/><path d="m85.064 38.825c-.475-1.236-1.653-2.121-3.056-2.121-1.821 0-3.296 1.476-3.296 3.296 0 .306.059.595.14.875 1.865-1.083 3.965-1.805 6.212-2.05z"/></g></g></switch></svg>

<?xml version="1.0" encoding="UTF-8"?>
<svg width="120px" height="80px" viewBox="0 0 120 80" version="1.1" xmlns="http://www.w3.org/2000/svg" xmlns:xlink="http://www.w3.org/1999/xlink">
    <!-- Generator: Sketch 52.4 (67378) - http://www.bohemiancoding.com/sketch -->
    <title>deposit</title>
    <desc>Created with Sketch.</desc>
    <g id="Page-1" stroke="none" stroke-width="1" fill="none" fill-rule="evenodd">
        <g id="deposit">
            <path d="M120,70 C120,75.5 115.5,80 110,80 L10,80 C4.5,80 0,75.5 0,70 L0,10 C0,4.5 4.5,0 10,0 L110,0 C115.5,0 120,4.5 120,10 L120,70 Z" id="Path" fill="#F5F5F5"></path>
            <path d="M110,0 L10,0 C4.5,0 0,4.5 0,10 L0,70 C0,75.5 4.5,80 10,80 L110,80 C115.5,80 120,75.5 120,70 L120,10 C120,4.5 115.5,0 110,0 Z M110,2 C114.412,2 118,5.588 118,10 L118,70 C118,74.412 114.412,78 110,78 L10,78 C5.588,78 2,74.412 2,70 L2,10 C2,5.588 5.588,2 10,2 L110,2 Z" id="Shape" fill="#D0D0D0" fill-rule="nonzero"></path>
            <circle id="Oval" fill="#773CBC" cx="86.804" cy="54.601" r="12.442"></circle>
            <path d="M88.65,53.473 L82.685,53.473 L82.685,55.552 L78.66,51.526 L82.685,47.5 L82.685,49.579 L88.65,49.579 L88.65,53.473 Z M84.958,55.729 L90.922,55.729 L90.922,53.651 L94.948,57.676 L90.922,61.702 L90.922,59.623 L84.958,59.623 L84.958,55.729 Z" id="Combined-Shape" fill="#FFFFFF"></path>
            <path d="M60,25.941 C67.752,25.941 74.059,32.248 74.059,39.999 C74.059,47.751 67.752,54.058 60,54.058 C52.249,54.058 45.942,47.751 45.942,39.999 C45.942,32.248 52.248,25.941 60,25.941 Z M37.992,43.296 C36.1716695,43.296 34.696,41.8203305 34.696,40 C34.696,38.1796695 36.1716695,36.704 37.992,36.704 C39.8123305,36.704 41.288,38.1796695 41.288,40 C41.288,41.8203305 39.8123305,43.296 37.992,43.296 Z M71.421,58.465 C71.765,59.835 72.275,61.138 72.949,62.341 L31.211,62.341 C28.539,62.341 26.366,60.167 26.366,57.496 L26.366,22.504 C26.366,19.832 28.54,17.659 31.211,17.659 L88.789,17.659 C91.461,17.659 93.634,19.833 93.634,22.504 L93.634,40.286 C92.417,39.704 91.121,39.267 89.758,39.01 L89.758,22.504 C89.758,21.979 89.314,21.535 88.789,21.535 L31.211,21.535 C30.686,21.535 30.242,21.979 30.242,22.504 L30.242,57.496 C30.242,58.021 30.686,58.465 31.211,58.465 L71.421,58.465 Z M85.064,38.825 C82.817,39.07 80.717,39.792 78.852,40.875 C78.771,40.595 78.712,40.306 78.712,40 C78.712,38.18 80.187,36.704 82.008,36.704 C83.411,36.704 84.589,37.589 85.064,38.825 Z" id="Combined-Shape" fill="#93C649"></path>
            <path d="M65.104,41.62 C64.946,41.215 64.691,40.853 64.349,40.544 C64.016,40.244 63.584,39.972 63.064,39.735 C62.553,39.503 61.923,39.287 61.191,39.095 C60.484,38.906 59.885,38.735 59.392,38.582 C58.914,38.436 58.517,38.273 58.211,38.099 C57.921,37.934 57.711,37.751 57.587,37.555 C57.464,37.363 57.404,37.129 57.404,36.841 C57.404,36.556 57.469,36.305 57.598,36.095 C57.732,35.878 57.913,35.694 58.136,35.548 C58.369,35.397 58.637,35.283 58.935,35.207 C59.631,35.028 60.472,35.058 61.052,35.276 C61.386,35.401 61.671,35.55 61.9,35.721 C62.129,35.891 62.311,36.067 62.442,36.244 C62.581,36.432 62.68,36.583 62.736,36.695 C62.846,36.917 62.955,37.056 63.077,37.131 C63.197,37.205 63.345,37.241 63.531,37.241 L64.311,37.241 C64.482,37.241 64.641,37.178 64.771,37.056 C64.913,36.925 64.977,36.756 64.959,36.584 C64.945,36.275 64.841,35.924 64.649,35.541 C64.461,35.166 64.192,34.801 63.845,34.453 C63.499,34.107 63.07,33.799 62.572,33.537 C62.12,33.299 61.606,33.13 61.039,33.031 L61.039,31.95 C61.039,31.752 60.964,31.571 60.819,31.426 C60.675,31.283 60.495,31.208 60.297,31.208 L59.517,31.208 C59.318,31.208 59.137,31.284 58.994,31.427 C58.85,31.571 58.774,31.752 58.774,31.95 L58.774,33.007 C58.225,33.094 57.731,33.245 57.301,33.458 C56.821,33.698 56.418,33.997 56.102,34.347 C55.786,34.698 55.544,35.094 55.382,35.524 C55.221,35.954 55.139,36.396 55.139,36.841 C55.139,37.296 55.203,37.723 55.331,38.112 C55.46,38.508 55.679,38.875 55.979,39.203 C56.274,39.525 56.659,39.813 57.125,40.059 C57.585,40.302 58.146,40.51 58.794,40.679 C59.489,40.856 60.112,41.024 60.661,41.181 C61.198,41.335 61.656,41.507 62.022,41.689 C62.371,41.864 62.642,42.06 62.826,42.271 C62.994,42.466 63.075,42.693 63.075,42.969 C63.075,43.255 63,43.506 62.846,43.736 C62.687,43.974 62.467,44.182 62.192,44.354 C61.911,44.531 61.578,44.668 61.201,44.765 C60.375,44.972 59.372,44.951 58.713,44.731 C58.354,44.612 58.048,44.465 57.799,44.293 C57.553,44.123 57.357,43.942 57.214,43.753 C57.068,43.562 56.96,43.382 56.889,43.221 C56.792,42.993 56.675,42.845 56.53,42.767 C56.401,42.698 56.253,42.663 56.09,42.663 L55.31,42.663 C55.137,42.663 54.979,42.729 54.855,42.853 C54.729,42.977 54.663,43.135 54.663,43.318 C54.677,43.708 54.795,44.11 55.015,44.514 C55.229,44.91 55.531,45.28 55.912,45.614 C56.289,45.944 56.738,46.236 57.247,46.485 C57.705,46.708 58.219,46.871 58.774,46.969 L58.774,48.05 C58.774,48.248 58.85,48.43 58.994,48.573 C59.137,48.716 59.318,48.792 59.517,48.792 L60.297,48.792 C60.495,48.792 60.676,48.717 60.821,48.572 C60.964,48.428 61.039,48.248 61.039,48.05 L61.039,47.017 C61.626,46.944 62.172,46.806 62.666,46.606 C63.222,46.381 63.702,46.092 64.092,45.747 C64.489,45.398 64.799,44.981 65.014,44.51 C65.229,44.039 65.339,43.521 65.339,42.969 C65.338,42.474 65.26,42.021 65.104,41.62 Z" id="Path" fill="#FFFFFF"></path>
            <g id="Group" transform="translate(26.000000, 17.000000)"></g>
        </g>
    </g>
</svg>
